X:1
T:Barbaree
M:4/4
L:1/8
K:Bb
 F| B3 F B2 F2| F2 FG F2 z D| C2B-c d2 d2| F2 d2 c4| z2 Bc dd dc| BG FF GA BG|\
F-D B,D F2 FG| F2 B,2 D2 F2| G4 z2 z||
